X: 117
T: Song of the Strong Heart Society (b)
C: Teton Sioux band 1911-1914
N: Derived from sioux117.krn
O: South Dakota, U.S.A.
N: Teton Sioux Music by Frances Densmore, 1918
Z: transcribed to **kern format by Craig Sapp
L: 1/8
M: 2/4
Q: 1/4=58
K: D clef=bass
%%linebreak <none>
F [I:setbarnb 1]| 
(3F F F (3F E D | 
(3F F E E3/ F/ | 
(3F E D (3B, B, B, | 
(3C B, B, (3B, B, B, | 
(3C B, B, (3B, B,- B, ]|:  
(3F F E (3E E F ||  
[M:3/4](3:2:9B, A, A, B, A, A, A, A, B, | 
(3F, F, E, F,> E, E,3/ F,/ ||  
[M:2/4]E,2B,, z/ F,/ | 
(3F, F, F, (3A, G, F, | 
(3F, F, F, (3F, E, C, | 
(3F, F, E, E,3/ F,/ | 
F, E, B,,3/ B,,/ | 
B,,4 | 
B,,3 :|]  



